X:67
T:Quick Step. JBs.067
S:Jas.Blackshaw MS, 1837, N.Shropshire
A:North Shropshire
Z:T. Weatherall 2006
M:6/8
L:1/8
Q:3/8=120
R:Jig
K:C
g>ag câ€™ba|ggg g2 f|egcâ€™ gec|ddd d3|!
g>ag câ€™ba|ggg g2f|egc dfB|ccc c2z:|!
|:ccc c2d|eee e2f|gag gfe|ddd d3|!
ccc c2d|eee e2f|gag fed|ccc c2z:|!
|:Gce edc|cBA AGF|EGB edc|BdB G2F|!
EGB edc|def g2e|dgd cBA|GGG G2z:|

